src/dsmComponents/Icons/fall-detected-24px.svg

<?xml version="1.0" encoding="UTF-8"?>
<svg width="24px" height="20px" viewBox="0 0 24 20" version="1.1" xmlns="http://www.w3.org/2000/svg" xmlns:xlink="http://www.w3.org/1999/xlink">
    <!-- Generator: Sketch 59.1 (86144) - https://sketch.com -->
    <title>fall-detected-24px</title>
    <desc>Created with Sketch.</desc>
    <defs>
        <path d="M19.4663034,10.9490448 L23.1856065,11.3251819 C23.6810509,11.3878714 24.0418788,11.8625206 23.9960814,12.3998593 C23.9488963,12.9491389 23.5311686,13.3775173 23.0190705,13.3984138 L18.3116541,13.2879608 L16.4117564,11.4625018 L11.6002551,16.7642438 C10.9174577,17.5105476 9.90991516,17.7687687 8.996743,17.4299468 L4.55717197,17.2209817 L2.00362064,19.6554247 C1.54842236,20.0897735 0.871176141,20.1166404 0.388221868,19.7181142 C0.371568272,19.7061733 0.356302476,19.6927399 0.34381228,19.680799 C-0.0697520114,19.2971989 -0.116937199,18.6255255 0.239727307,18.1807284 L3.19296493,14.4924951 C3.46219806,14.3283083 3.77445298,14.276067 4.0756055,14.3462196 L7.32860784,14.1745697 C7.42991721,13.6566349 7.66445535,13.1834783 8.00307846,12.8088338 L10.9507649,9.56689018 L12.4565275,7.97726313 L10.8203117,6.6876502 C10.5871614,6.50256686 10.4247888,6.22643446 10.3706646,5.91447948 L9.58794564,1.35456339 C9.48802407,0.770953833 9.81832038,0.200777745 10.3512354,0.0380835215 L10.354011,0.0380835215 C10.8716603,-0.115655057 11.407351,0.209733391 11.5516821,0.767968618 L12.6147366,4.88607287 L14.6881093,6.10105543 C14.7838675,6.15777451 14.8712989,6.22941968 14.9504034,6.3130057 C14.9504034,6.3130057 17.6066519,8.75491167 17.6704907,8.93103936 L19.4663034,10.9490448 Z M20.8901859,6.54585248 C19.732761,7.81904673 17.8536803,7.81904673 16.6948676,6.54585248 C15.5360549,5.26967302 15.5360549,3.20390415 16.6948676,1.9292173 C17.8536803,0.656023051 19.732761,0.656023051 20.8901859,1.9292173 C22.0489986,3.20390415 22.0489986,5.26967302 20.8901859,6.54585248 L20.8901859,6.54585248 Z M8.26537259,10.708735 C8.26537259,10.708735 6.55837904,12.5983761 6.38629189,12.846149 L4.08948349,9.83108172 L0.907258931,9.22060522 C0.363241474,9.11313748 -0.0225668239,8.59072483 0.00102576993,7.99666703 C0.00241356956,7.98174095 0.00241356956,7.96532227 0.0038013692,7.94890358 C0.0495987571,7.40708704 0.49508244,7.00706821 0.998853707,7.05781687 L5.41066874,7.54142172 L8.26537259,10.708735 Z" id="path-1"></path>
    </defs>
    <g id="Final" stroke="none" stroke-width="1" fill="none" fill-rule="evenodd">
        <g id="All-Nucleo-Icons" transform="translate(-608.000000, -3361.000000)">
            <g id="Solo/Nucleo/24px/fall-detected" transform="translate(608.000000, 3359.000000)">
                <g id="fall-detected" transform="translate(0.000000, 2.000000)">
                    <mask id="mask-2" fill="white">
                        <use xlink:href="#path-1"></use>
                    </mask>
                    <use id="Mask" fill="#000000" xlink:href="#path-1"></use>
                    <g id="colour/neutral/chia" mask="url(#mask-2)" fill="#737373">
                        <g transform="translate(-21.000000, -22.230769)" id="Colour">
                            <rect x="0" y="0" width="64" height="64"></rect>
                        </g>
                    </g>
                </g>
            </g>
        </g>
    </g>
</svg>

<svg width="24" height="20" xmlns="http://www.w3.org/2000/svg" xmlns:xlink="http://www.w3.org/1999/xlink"><defs><path d="M19.466 10.949l3.72.376c.495.063.856.538.81 1.075-.047.55-.465.978-.977.998l-4.707-.11-1.9-1.825-4.812 5.301c-.683.747-1.69 1.005-2.603.666l-4.44-.209-2.553 2.434a1.202 1.202 0 01-1.66.026 1.12 1.12 0 01-.104-1.5l2.953-3.689c.27-.164.581-.216.883-.146l3.253-.171c.1-.518.335-.992.674-1.366l2.948-3.242 1.506-1.59-1.637-1.29a1.26 1.26 0 01-.45-.773l-.782-4.56c-.1-.583.23-1.153.763-1.316h.003c.518-.154 1.053.172 1.198.73l1.063 4.118 2.073 1.215a1.2 1.2 0 01.262.212s2.657 2.442 2.72 2.618l1.796 2.018zm1.424-4.403c-1.157 1.273-3.036 1.273-4.195 0-1.159-1.276-1.159-3.342 0-4.617 1.159-1.273 3.038-1.273 4.195 0 1.159 1.275 1.159 3.34 0 4.617zM8.265 10.709s-1.707 1.89-1.879 2.137L4.09 9.831l-3.182-.61c-.544-.108-.93-.63-.906-1.224l.003-.048c.046-.542.491-.942.995-.891l4.412.483 2.854 3.168z" id="fall-detected-24px_svg__a"/></defs><use fill="#737373" xlink:href="#fall-detected-24px_svg__a" fill-rule="evenodd"/></svg>
